icon/gi/abstract-108.svg

<svg xmlns="http://www.w3.org/2000/svg" viewBox="0 0 512 512" height="1em" width="1em">
  <path d="M0 0h512v512H0z"/>
  <path fill="#fff" d="m491,427.2562c0,35.2951-28.4123,63.7438-63.5968,63.7438h-123.2281c8.7457-11.2367 16.7774-24.3213 24.0875-38.6282h79.1656c35.1845,0 63.5968-28.4487 63.5968-63.7437v-350.4438c12.328,11.5758 19.975,28.0545 19.975,46.4125zm-30.2562-65.6531c0,35.2951-28.4124,63.7437-63.5969,63.7437h-56.5468c18.8282-47.3644 29.9625-105.8763 29.9625-169.3469 0-97.5346-26.3796-183.5969-66.3875-235h123.2281c12.2256,0 23.6581,3.4598 33.3406,9.4zm-120.7313-105.6031c0,86.3696-37.6108,211.7683-84.0124,211.7683s-84.0125-125.3988-84.0125-211.7683 37.6108-177.0159 84.0125-177.0159 84.0124,90.6464 84.0124,177.0159zm-132.1875,235h-123.2281c-35.1845,0-63.5969-28.4487-63.5969-63.7438v-342.6594c0-18.2834 7.7347-34.6974 19.975-46.2656v350.2969c0,35.2951 28.4123,63.7437 63.5969,63.7437h79.1656c7.314,14.3187 15.3358,27.3837 24.0875,38.6282zm0-470c-40.0079,51.4031-66.3875,137.4654-66.3875,235 0,63.4705 11.2812,121.9825 30.1094,169.3469h-56.6938c-35.1845,0-63.5969-28.4487-63.5969-63.7437v-331.2031c9.7057-5.9813 21.0693-9.4 33.3406-9.4z"/>
</svg>

<svg xmlns="http://www.w3.org/2000/svg" viewBox="0 0 512 512"><path d="M0 0h512v512H0z"/><path fill="#fff" d="M491 427.256C491 462.551 462.588 491 427.403 491H304.175c8.746-11.237 16.777-24.321 24.088-38.628h79.165c35.185 0 63.597-28.449 63.597-63.744V38.184C483.353 49.76 491 66.24 491 84.597zm-30.256-65.653c0 35.295-28.413 63.744-63.597 63.744H340.6C359.428 377.982 370.563 319.47 370.563 256c0-97.535-26.38-183.597-66.388-235h123.228a63.607 63.607 0 0 1 33.34 9.4zM340.012 256c0 86.37-37.61 211.768-84.012 211.768S171.988 342.37 171.988 256 209.598 78.984 256 78.984 340.013 169.631 340.013 256zM207.826 491H84.597C49.412 491 21 462.551 21 427.256V84.596c0-18.283 7.735-34.697 19.975-46.265v350.297c0 35.295 28.412 63.744 63.597 63.744h79.166c7.314 14.318 15.335 27.383 24.087 38.628zm0-470c-40.008 51.403-66.387 137.465-66.387 235 0 63.47 11.28 121.983 30.109 169.347h-56.694c-35.184 0-63.597-28.449-63.597-63.744V30.4c9.706-5.981 21.07-9.4 33.34-9.4z"/></svg>
